// History, as it was on Sat Oct 27 01:32:06 2012.

[
[ 0, 'me', "ProxySpace(Server.default, 'post', TempoClock.new).play
;" ],
[ 0.21879804300079, 'me', "ProxySpace.pop;
ProxySpace.all['post'].push;" ],
[ 9.9355305560002, 'me', "ProxySpace(Server.default, 'Untitled2', TempoClock.new).play
;" ],
[ 10.158806825, 'me', "ProxySpace.pop;
ProxySpace.all['Untitled2'].push;" ],
[ 23.300696939001, 'me', "ProxySpace.pop;
ProxySpace.all['post'].push;" ],
];