// History, as it was on Thu Nov 15 17:54:10 2012.

[
[ 0, 'me', "ProxySpace(Server.default, 'tryoutscd', TempoClock.new).play
;" ],
[ 0.21105110500002, 'me', "ProxySpace.pop;
ProxySpace.all['tryoutscd'].push;" ],
];